X: 77
T:La Chasse a la becasse
M:3/4
L:1/4
R:Waltz
Z:Steve Mansfield
K:G
GFG | E>FG | ABA | G2F | GFG | E>FG | AGF | G3 :|
| DGA | B3 | AGF | E2E | EFG | A3 | AGF | D3 |
  DGA | B3 | AGF | E3 | FGF | E3- | E3 |E3 ||

